X: 20513
T: METHVEN CASTLE
Q: "Slow."
%R: air, jig
B: W. Hamilton "Universal Tune-Book" Vol. 2 Glasgow 1846 p.51 #3
S: http://s3-eu-west-1.amazonaws.com/itma.dl.printmaterial/book_pdfs/hamiltonvol2web.pdf
Z: 2016 John Chambers <jc:trillian.mit.edu>
M: 6/8
L: 1/8
K: G
%%stretchstaff 0
% - - - - - - - - - - - - - - - - - - - - - - - - -
B/c/ |\
d2e dBG | gdB dBG | d2e dBG | g>fg/b/ B2A |\
d2e dBG | g>fg/b/ Ha2 g/b/ | geg dBG | BGG "^Fin."G2 H:|
F/G/ |\
A2B AFD | d^cB AFD | A2B AFD | AB^c d2 F/G/ |\
A2B AFD | d>^cd/f/ He>de | dBd AFD | FDD "^D.C."D2 |]
% - - - - - - - - - - - - - - - - - - - - - - - - -

%%sep 1 1 500
%%sep 1 1 500

